!!!!SEGMENT: pl-wnifc--493-n--001-008_oginski-michal-kleofas--16-polonaises-8-polonaise-in-b.krn
!!!cenid: 18xx:3867
!!!COM: Ogiński, Michał Kleofas
!!!COM-rismID: pe30002379
!!!CDT: 1765/09/25-1833/10/15
!!!CNT:
!!!GTL: 16 Polonaises
!!!OTL: 8. [Polonaise in B]
!!!OMV: 008
!!!PDT: 1864
!!!AGN: Secular; Polonaise
!!!YEC: Copyright 2022 Narodowy Instytut Fryderyka Chopina (https://polishscores.org)
!!!YEM: License CC-BY-4.0 (https://creativecommons.org/licenses/by/4.0)
!!!SMS-siglum: PL-Wnifc
!!!SMS-shelfmark: 493/n
!!!SMS-shelfwork: 001-008 G
!!!SMS-variant:
!!!SMS-altvar:
!!!NIFC-rismSourceID: 1001157350
!!!NIFC-rismChildID: 1001157359
!!!NIFC-islandoraID: nifc:212371
!!!URL-pdf-islandora: https://repozytorium.nifc.pl/islandora/object/nifc%3A212371/datastream/PDF/view
!!!URL-scan: https://polish.musicsources.pl/pl/lokalizacje/galeria/druki-muzyczne/16843 @EN{Scan on Polish Music Sources Website} @PL{Skany w portalu Dziedzictwo Muzyki Polskiej w otwartym dostępie}
!!!IIIF:
!!!ONB-nifc: UWAGA: w zbiorze znajduje się 14 Polonezów z Triami, pliki są numerowane jak w źródle.
!!!AIN: 1 piano
!!!key: B-
!!!OMD: Moderato.
!!!OMD-mod: Moderato
**kern	**kern	**dynam
*part1	*part1	*
*staff2	*staff1	*
*I"Piano.	*I"Piano.	*
*I'	*I'	*
*Ipiano	*Ipiano	*
*ICklav	*ICklav	*
*IGsolo	*IGsolo	*
*mI"Pianoforte	*mI"Pianoforte	*
*mI'pf	*mI'pf	*
*clefF4	*clefG2	*
*k[b-e-]	*k[b-e-]	*
*B-:	*B-:	*
*M3/4	*M3/4	*
*>[A,B,A,B,C,B,D,D1,D,D2,E,E1,E,E2,A,B]	*>[A,B,A,B,C,B,D,D1,D,D2,E,E1,E,E2,A,B]	*
*>A	*>A	*
=1	=1	=1
8BB-\ 8D 8F 8B-	8d/L 8b-	f
16.D\LL 16.B-	16.d/L 16.b-	.
32D\JJk 32B-	32d/JJk 32b-	.
8D'\L 8B-	8d'/L 8b-	.
8D'\J 8B-	8d'/J 8b-	.
8F'\L 8c	8f'/L 8cc	.
8F'\J 8c	8f'/J 8cc	.
=2	=2	=2
*	*^	*
4B-\ 4d	8.dd/L	4b-\	.
.	16ff/Jk	.	.
8D\L 8B-	8d/L 8b-	2ryy	.
16.D\L 16.B-	16.d/L 16.b-	.	.
32D\JJk 32B-	32d/JJk 32b-	.	.
8F\L 8c	8f/L 8cc	.	.
8F\J 8c	8f/J 8cc	.	.
*	*v	*v	*
!!LO:LB:g=original
=3	=3	=3
4.B-\ 4.d	(8b-\L 8dd	<
.	8cc\ 8ee-	.
.	8dd\ 8ff	.
8r	8ee-\) 8gg	.
4r	8cc'\ 8aa	.
.	8dd'\J 8bb-	[
=4	=4	=4
*	*^	*
8FF/ 8F	8ee-\ 8ccc	2ryy	fz
8F\L 8c	16.f\LL 16.ff	.	.
.	32f\JJk 32ff	.	.
8B-\ 8d	8f\L 8ff	.	.
8B-\ 8d	16.f\L 16.ff	.	.
.	32f\JJk 32ff	.	.
8c\ 8e-	(16ff/LL	4f\	.
.	16ee-/	.	.
8F\J	16cc/	.	.
.	16a/JJ)	.	.
*	*v	*v	*
=5	=5	=5
8D\L 8B-	8d/L 8b-	f
16.D\L 16.B-	16.d/L 16.b-	.
32D\JJk 32B-	32d/JJk 32b-	.
8D\L 8B-	8d/L 8b-	.
8D\J 8B-	8d/J 8b-	.
8F\L 8c	8f/L 8cc	.
8F\J 8c	8f/J 8cc	.
!!LO:LB:g=original
=6	=6	=6
4B-\ 4d	(16dd\LL	<
.	16ee-\	.
.	16een\	.
.	16ff\JJ)	[
8D\L 8B-	8d/L 8b-	.
8D\ 8B-	8d/ 8b-	.
8F\ 8c	8f/ 8cc	.
8F\J 8c	8f/J 8cc	.
=7	=7	=7
8B-'\L	8b-'\L 8dd	.
8G'\	8b-'\ 8een	.
8A'\	8cc'\ 8ff	.
8B-'\J	8dd'\ 8gg	.
8c\L	(8.cc\ 8.aa	.
8C\J 8En 8B-	.	.
.	16gg\Jk)	.
=8	=8	=8
8F\L 8A	8ffM\L	.
8C\ 8G 8B-	(16.gg\L	.
.	32een\JJk)	.
8F\ 8A	8ffM\L	.
8C\J 8G 8B-	(16.gg\L	.
.	32ee\JJk)	.
4F\ 4A	(16ff\LL	.
.	16ee\	.
.	16ee-X\	.
.	16dd\JJ)	.
!!LO:LB:g=original
!LO:TX:b:t=[segno]	!LO:TX:t=[segno]	!
=9||	=9||	=9||
*>B	*>B	*
!	!LO:TX:b:i:t=dol.:mod=dolce	!
.	8qff/	.
(8c\L 8e-X	4.ee-\	.
8F\J	.	.
8c\L 8e-	.	.
8F\	(16.dd\LL	.
.	32cc\JJk)	.
8c\ 8e-	(16.b-/LL	.
.	32a/K)	.
8F\J)	(16.g/	.
.	32f/JJk)	.
=10	=10	=10
(8B-\L 8d	8b-\	.
8F\J	4b-^\	.
8B-\L 8d	.	.
8F\	(16.ee-\LL	.
.	32dd\JJk	.
8B-\ 8d	16cc\LL	.
.	16b-\	.
8F\J)	16a\	.
.	16g\JJ)	.
=11	=11	=11
(8A\L 8e-	(8f/L	.
8F\J	16f/L	.
.	16g/JJ	.
8A\L 8e-	16a\LL	.
.	16b-\	.
8F\	16cc\	.
.	16dd\JJ	.
8A\ 8e-	16ee-\LL	.
.	16cc\	.
8F\J)	16ff\	.
.	16ee-\JJ)	.
!!LO:PB:g=original
=12	=12	=12
(8B-\L 8d	8.a\L 8.cc#X	.
8F\J)	.	.
.	16b-\Jk 16dd	.
8B-\ 8d	8b-\L 8dd	<
8r	8b-\J 8dd	.
4r	(8ccn\L 8ee-	.
.	8dd\J) 8ff	[
=13	=13	=13
*	*^	*
16E-\LL 16G	8gg/	8g\L 8b- 8ee-	ff
16B-\	.	.	.
16BB-\	8ryy	8ee-\J	.
16B-\JJ	.	.	.
16E-\LL 16G	4bb-\ 4b-\	4b-\	.
16B-\	.	.	.
16BB-\	.	.	.
16B-\JJ	.	.	.
16E-\LL 16G	(16aa\LL	4ryy	.
16B-\	16gg\	.	.
16BB-\	16ff\	.	.
16B-\JJ	16ee-\JJ)	.	.
*	*v	*v	*
=14	=14	=14
16D\LL 16F	(8.dd\L	.
16B-\	.	.
16BB-\	.	.
16B-\JJ	16ff\Jk)	.
16D\LL 16F	(16een\LL	.
16B-\	16ff\	.
16BB-\	16gg\	.
16B-\JJ	16ff\JJ	.
16D\LL 16F	16ee-X\LL	.
16B-\	16dd\	.
16BB-\	16cc\	.
16B-\JJ	16b-\JJ)	.
!!LO:LB:g=original
=15	=15	=15
8C\L 8E- 8F 8A	(16a/LL	.
.	16b-/	.
8C\ 8E- 8F 8A	16bn/	.
.	16cc/JJ	.
8C\ 8E- 8F 8A	16b-X/LL	.
.	16a/	.
8C\J 8E- 8F 8A	16g/	.
.	16f/JJ)	.
8FF\L	(16f\KL	.
.	8ff^\	.
8F\J 8A 8c	.	.
.	16ee-\Jk)	.
=16	=16	=16
8B-\L 8d	(16dd\LL	.
.	16ff\	.
8F\J 8A 8c 8e-	16ee-\	.
.	16cc\JJ)	.
8r	(4cc\	.
8F\L 8A 8e-	.	.
8B-\J 8d	8b-\)	.
!	!LO:TX:b:i:t=Fine.:mod=	!
8r	8r	.
!!LO:TX:a:B:rj:t=:mod=Fine
==:|17	==:|17	==:|17
*>C	*>C	*
8FF/ 8F	(16bn\LL	p
.	16cc\	.
8F\L 8A 8c	16dd\	.
.	16cc\JJ	.
8F\ 8A 8c	16een\LL	.
.	16dd\	.
8F\ 8A 8c	16ff\	.
.	16ee\JJ	.
8F\ 8A 8c	16gg\LL	.
.	16ff\	.
8F\J 8A 8c	16aa\	.
.	16gg\JJ)	.
=18	=18	=18
8GG/ 8G	(8ff\L	.
8G\L 8B- 8c 8en	8een\J)	.
8G\ 8B- 8c 8e	2ee\	.
8G\ 8B- 8c 8e	.	.
8G\ 8B- 8c 8e	.	.
8G\J 8B- 8c 8e	.	.
=19	=19	=19
8AA/ 8A	(16bbn\LL	.
.	16ccc\	.
8A\L 8c 8f	16ddd\	.
.	16ccc\JJ	.
8A\ 8c 8f	16bb-X\LL	.
.	16aa\	.
8A\ 8c 8f	16gg\	.
.	16ff\JJ)	.
8A\ 8c 8f	(16een\LL	.
.	16ff\	.
8A\J 8c 8f	16ee-X\	.
.	16ff\JJ)	.
!!LO:LB:g=original
=20	=20	=20
8BB-\ 8B-	(8.cc^\L	.
8B-\L 8d 8f	.	.
.	16dd\Jk)	.
8B-\ 8d 8f	2dd\	.
8B-\ 8d 8f	.	.
8B-\ 8d 8f	.	.
8B-\J 8d 8f	.	.
=21	=21	=21
8EEn/ 8En	(2dd-X^\	.
8E\L 8G 8B- 8d-X	.	.
8E\ 8G 8B- 8d-	.	.
8E\ 8G 8B- 8d-	.	.
8E\ 8G 8B- 8d-	8.cc#X\L	.
8E\J 8G 8B- 8d-	.	.
.	16b-\Jk)	.
=22	=22	=22
8FF/ 8F	(8.a\L	.
8F\L 8A 8c	.	.
.	16b-\K)	<
8F\ 8A 8c	(8.cc\	.
8F\ 8A 8c	.	.
.	16ddn\K)	.
8F\ 8A 8c	(8.een\	.
8F\J 8A 8c	.	.
.	16ff\Jk)	[
!!LO:LB:g=original
=23	=23	=23
8GG/ 8G	(8een\L	f
8G\L 8B- 8d-X 8en	8ddd-X\J)	<
8G\ 8B- 8d- 8e	(32ccc\KLL	.
.	16.bb-\JJ)	.
8G\ 8B- 8d- 8e	(32aa-X\KLL	.
.	16.gg\JJ)	.
8G\ 8B- 8d- 8e	(32ff\KLL	.
.	16.ee\JJ)	.
8G\J 8B- 8d- 8e	(32ddd-\KLL	[
.	16.ee\JJ)	.
=24	=24	=24
16F\ 16A 16c 16f	16ff\	.
!	!LO:TX:b:i:t=ritard.	!
16r	(16f/LL	p
8r	16an/	.
.	16g/JJ	.
4r	16b-\LL	.
.	16a\	.
.	16cc\	.
.	16b-\JJ	.
!	!LO:TX:a:i:t=Dal Segno\n al Fine.:mod=	!
4r	16ddn\LL	.
.	16cc\	.
.	16ee-X\	.
.	16dd\JJ)	.
!LO:TX:b:t=[segno]	!LO:TX:t=[segno]	!
!!LO:PB:g=original
!!LO:TX:a:B:rj:t=:mod=Dal Segno al Fine
!LO:MO:mod==25!|:	!LO:MO:mod==25!|:	!LO:MO:mod==25!|:
==25	==25	==25
*>D	*>D	*
*k[b-e-a-d-g-]	*k[b-e-a-d-g-]	*
!	!LO:TX:a:t=Trio.	!
(8B-\L 8d-	(4.dd-\	p
8F\	.	.
8B-\ 8d-	.	.
!	!LO:TX:b:i:t=simplice mente:mod=simplicemente	!
8F\	8ff\L	.
8An\ 8e-	8cc\	.
8F\J)	8dd-\J)	.
=26	=26	=26
(8B-\L 8d-	(4.b-\	.
8F\J	.	.
*tremolo	*	*
8B-\L 8d-	.	.
8F\	8f\L	.
8B-\ 8d-	8b-\	.
8F\J)	8dd-\J)	.
=27	=27	=27
(8An\L 8e-	4.cc\	.
8F\	.	.
8A\ 8e-	.	.
8F\J	(8cc\L	.
8B-\L 8d-	8dd-\	.
8F\J)	8b-\J)	.
=28	=28	=28
16F'\ 16An 16c	16ff'\	.
16r	(16f/LL	<
8r	16gn/	.
.	16an/JJ	.
4r	16b-\LL	.
.	16cc\	.
.	16dd-\	.
.	16ee-\JJ	[
4r	16ff\LL	>
.	16ee-\	.
.	16dd-\	.
.	16cc\JJ)	]
!!LO:LB:g=original
=29	=29	=29
(8B-\L 8d-	(4.dd-\	pp
8F\	.	.
8B-\ 8d-	.	.
8F\J	8ff\L	.
8An\L 8e-	8cc\	.
8F\J)	8dd-\J)	.
=30	=30	=30
(8G-\L 8B-	(2b-\	.
8d-\	.	.
8G-\ 8B-	.	.
8d-\J	.	.
*Xtremolo	*	*
8En\L 8B-	8.b-^\L	.
8d-\J)	.	.
.	16cc\Jk)	.
=31	=31	=31
(8F\L 8B-	(4.dd-\	.
8d-\	.	.
8F\ 8An	.	.
8e-\	8cc\L	.
8F\ 8A	8dd-\	.
8e-\J)	8cc\J)	.
*>D1	*>D1	*
=32	=32	=32
4.B-\ 4.d-	4.b-\	.
8r	(8f/L	.
4r	8b-/	.
.	8cc/J)	.
*>D2	*>D2	*
=33:|!	=33:|!	=33:|!
4.B-\ 4.d-	4.b-\	.
8r	8a-X/L	.
4r	8a-/	.
.	8a-/J	.
!!LO:LB:g=original
*>E	*>E	*
=34!|:	=34!|:	=34!|:
(8e-\L 8g-	4.gg-^\	fp
8A-X\	.	.
8e-\ 8g-	.	.
8A-\	(8ee-\L	.
8e-\ 8g-	8cc\	.
8A-\J)	8a-\J)	.
=35	=35	=35
(8d-\L 8f	4dd-\	.
8A-\	.	.
8d-\ 8f	4dd-sS\	.
8A-\	.	.
8d-\ 8f	(16ee-\LL	.
.	16dd-\	.
8A-\J)	16cc\	.
.	16b-\JJ)	.
=36	=36	=36
(8c\L 8g-	(8b-/L	.
8A-\	8a-/J)	.
8c\ 8g-	8a-'/	.
8A-\	(8a-/L	.
8c\ 8g-	8b-/	.
8A-\J)	8cc/J)	.
=37	=37	=37
!	!LO:TUP:a:problem:klamra łukowa i cyfra	!
(8d-\L 8f	(12cc\L	.
.	12ee-\	.
8A-\	.	.
.	12dd-\J)	.
8d-\ 8f	2dd-\	.
8A-\	.	.
8d-\ 8f	.	.
8A-\J)	.	.
=38	=38	=38
(8G-\L 8B-	(8bb-\L	.
8d-\	8gg-\J)	.
8G-\ 8B-	4ddd-^\	.
8d-\	.	.
8G-\ 8B-	(16ccc\LL	.
.	16bb-\	.
8d-\J)	16aa-\	.
.	16gg-\JJ)	.
!!LO:LB:g=original
=39	=39	=39
(8F\L 8A-	(8aa-\L	.
8d-\	8ff\	>
8G-\ 8B-	8ddd-\	.
8d-\	8bb-\	.
8G-\ 8B-	8gg-\	.
8d-\J)	8ee-\J)	]
=40	=40	=40
(8A-\L 8d-	4.dd-\	.
8f\	.	.
8A-\ 8d-	.	.
8f\	(8dd-\L	.
8A-\ 8e-	8ff\	.
8g-\J)	8ee-\J)	.
=41	=41	=41
(8d-\ 8f	4.dd-\	.
8c\L 8e-	.	.
!	!	!LO:MO:mod=!null:null
!	!	!LO:HP:b=2
8d-\ 8f	.	>
8c\ 8e-	8r	.
8B-\ 8d-	4r	.
8An\J) 8c	.	]
=42	=42	=42
*tremolo	*	*
!	!LO:TX:b:i:t=simplicemente.:mod=simplicemente	!
(8B-\L 8d-	(4.dd-\	p
8F\	.	.
8B-\ 8d-	.	.
8F\J	8ff\L	.
8An\L 8e-	8cc\	.
8F\J)	8dd-\J)	.
=43	=43	=43
(8B-\L 8d-	(4.b-/	.
8F\	.	.
8B-\ 8d-	.	.
8F\J	8f/L	.
8B-\L 8d-	8b-/	.
8F\J)	8dd-/J)	.
=44	=44	=44
(8An\L 8e-	4.ccsS\	.
8F\	.	.
8A\ 8e-	.	.
8F\	(8cc\L	.
8B-\ 8d-	8dd-\	.
8F\J)	8b-\J)	.
!!LO:LB:g=original
=45	=45	=45
16F\ 16An 16c	16ff'\	.
16r	(16f/LL	<
8r	16gn/	.
.	16an/JJ	.
4r	16b-\LL	.
.	16cc\	.
.	16dd-\	.
.	16ee-\JJ	[
4r	16ff\LL	>
.	16ee-\	.
.	16dd-\	.
.	16cc\JJ)	]
=46	=46	=46
(8B-\L 8d-	(4.dd-\	pp
8F\	.	.
8B-\ 8d-	.	.
8F\	8ff\	.
8An\ 8e-	8cc\L	.
8F\J)	8dd-\J)	.
=47	=47	=47
(8G-X\L 8B-	8b-\	.
8d-\	8r	.
8G-\ 8B-	(4.b-\	>
8d-\	.	.
8En\ 8B-	.	.
8d-\J)	8cc\)	]
=48	=48	=48
(8F\L 8B-	(2dd-\	.
8d-\	.	.
8F\ 8B-	.	.
8d-\J	.	.
8F\L 8An	8cc\L	.
8e-\J)	8dd-\J)	.
*>E1	*>E1	*
=49	=49	=49
4.B-\ 4.d-	4.b-\	.
8r	(8a-X'/L	.
4r	8a-'/	.
.	8a-'/J)	.
*>E2	*>E2	*
=50:|!	=50:|!	=50:|!
!LO:TX:b:i:t=Da capo al Fine.:mod=	!	!
4B-\ 4d-	4b-\	.
4r	8r	.
.	16f'/LL	.
.	16f'/JJ	.
4r	8f'/L	.
.	8f'/J	.
!!LO:TX:a:B:t=:mod=Da Capo al Fine
==	==	==
*-	*-	*-
!!!RDF**kern: > = above
!!!RDF**kern: < = below
!!!system-decoration: {(*)}
!!!filter-modern: sic -sq | shed -k -e "s/:TUP:/:tup:/L" | shed -e "s/TX(.*):t=P:/tx$1:t=P:/LG" | shed -k -e "s/LO:N:vis/LO:n:vis:/L"  | shed -e "s/:rj/:RJ/L" | shed -k -e "s/([^a-gA-Gn#X-])[<>]/$1/g" | shed -e "s/LO:DY:(a|b|rj)/LO:dy:$1/L" | shed -e "s/-//B" | autostem -r | modori -m
!!!ENC: Marta Opryszak
!!!END: 2022-07-25
!!!EED: Urszula Świątek
!!!EEV: 2022-08-22
!!!ENC-modern: Andrzej Borzym
!!!END-modern: 2022-08-30
